X:1
T:Hungry Rock
C:Liam Kelly
S:Peter Crummy  irtrad-l 2001-5-29
R:Jig
M:6/8
K:Edor
D | GEB GEB | F2F dAf | GEB GEG | EFD E2D |
    GEB GEB | F~F2 dAf | agf edB | ABd E2 :|
B | AFE ABA | efe dAB | AFE ABA | efg fed |
    AFE ABA | efe dAB | agf edB | ABA e2 :|
d | GEF GFG | EFE GFE | FEF GFG | BGE cEd |
    GEF GFG | EFE GFE | ABG EcA | dAf g2 :|
